X:1
T:Perche Vechia gli dissi
T:Gioan Felice Sances
T:Source : Capricci poetici---Venetia---A.Gardano---1649. Editor : André Vierendeels (23/11/16).
T:Notes : Original clefs : C1, F4, Editorial accidentals above the staff Original note values have been halved in 3-beat measures Dotted brackets indicate black notes Figures in BC are notated in original print 
T:Perche Vechia gli dissi
T:©
T:©
T:©
T:©
T:©
T:©
T:©
C:Gioan Felice Sances
Z:©
%%score 1 2
L:1/8
Q:1/4=106
M:6/4
K:F
V:1 treble nm="Soprano" snm="S"
V:2 bass nm="MusicXML Part"
V:1
 z2 F2 G2 A2 B2 c2 | d4 c2 B2 A2 G2 | A2 G4 F4 c2 | B2 A2 G2 A2 G4 |[M:3/4] F6 | %5
w: Per- che Ve- chia gli|dis- si'un di oer _|gio- * co'un di|per _ gio- * *|co,|
w: Ma voi che tan- to|la ve- chiez- za dia|te la ve- chiez-|z'o- dia- * * *|te,|
w: Man- ca'il tempo ad o-|gn'un quan- do ha che|fa _ re, quan-|do ha che fa- *|re,|
[M:4/4] AA AB/c/ dd/c/ B/A/G/F/ | E3 c cd- B/A/B/c/ | A4 G4 | GG GA/B/ cc/B/ A/G/F/E/ | %9
w: stas- si me- co sde- gno- sa la mia famo- sa'o- hn'hor|e get- * ta _ _ _ _|fo- co|stas- si me- co sde- gno- sa la mia fa- mo- sa'o-|
w: pria che s'in- ve- ch'il sen sac- cia- te'il rio ve- len|_ e vi pla- * * * *|ca- te,|pria che s'in- vec- ch'il sen sac- cia- t'il rio ve- len|
w: e voi gri- dar vo- le- te per- che del tem- po'ha-|ve- te da get- * * * *|ta- re,|e voi gri- dar vo- le- te per- che del tem- po'ha-|
 D3 d de c/B/c/d/ | G4 F3 B | Bc A/G/ A/B/ G4 | F8 :: z cGB A4 | z fc_e dc c2 | %15
w: gn'hor et- ta _ _ _ _ _|fo- co, e|get- * ta _ _ _ fo-|co,|O tra- di- tor,|O tra- di- tor pen- sie-|
w: _ e vi pla- * * * *|ca- te, e|vi _ pla- * * * ca-|te,|che fu ne l'alta,|che fu ne l'al- ta mo-|
w: ve- te da get- * * * *|ta- re, ha-|ve- te da _ get- * ta-|re,|il tem- po val,|il tem- po val tan- t'o-|
 BFGA BA/B/ G/A/B/c/ | Acde fe/f/ d/e/f/g/ | eGAB cB A/G/A/B/ | GBcd _ed/e/ c/d/=e/f/ | %19
w: ro scher- zai che dol- * * * * * *|se, scher- zai che dol- * * * * * *|se, e mot- te- giai ful' ve- * * *|ro, scher- zai che dol- * * * * * *|
w: le tut- to ri- splen- * * * * * *|de, tut- to ri- splen- * * * * * *|de, e pie e ve- chio'il so- * * *|le, tut- to ri- splen- * * * * * *|
w: ro e voi sde- gna- * * * * * *|te, e voi sde- gna- * * * * * *|te d'ha- ver que- sto te- so- * * *|ro, e voi sde- gna- * * * * * *|
 dDEF GF E2 | D8 | z2 z A dcc=B | =B3 G cB B>A | A4 d2 GA | G8 | F8 |[M:6/4] A2 ABcd B6 | %27
w: se, e mot- te- giai fu'il ve-|ro,|in ton per l'a- ve-|nir, in ton per l'a- ve-|nir lin- gua'ed in-|ge-|gno|sem- pre la ve- ri- tà,|
w: de, e pur e ve- chio'il so-|le,|e s'à voi pin- ge'il|vol- to, e s'à pin- ge'il|vol- to,ar- t'e na-|tu-|ra,|piu quand' è piu ve- chia,|
w: te d'ha- ver que- sto te- so-|ro,|si, si, te- me- te|voi, si, si, te- me- te|voi fa- rai'a- tem-|pa-|ta,|du- bi- tado che ri- cha,|
 c2 cd_ef d2 dcBA | B2 A2 B2 B2 A4 | G6 G2 GABc | A2 AGFE F2 F2 E2 | E2 D4 C6 | G2 GABc A6 | %33
w: sem- pre la ve- ri- tà ge- * * *|* ne- ra sde- *|gno, sem- pre la ve- ri-|tà ge- * * * * ne- ra|sde- * gno,|sem- pre la ve- ri- tà,|
w: piu val quand' è piu ve- chia _ _ _|_ o- hni pit- tu-|ra, piu val quand' è piu|ve- chia _ _ _ _ o- gni|pit- tu- ra,|piu val quand' è piu ve-|
w: du- bi- tan- do che ri- cha _ _ _|es- ser ru- ba- *|ta, du- bi- tan- do che|ri- cha'es- * * * * ser ru-|ba- * ta,|du- bi- tan- do che ri-|
 A2 ABcd B2 BA GF | G2 A2 B2 _ed c4 | B6 D2 DEFG | E6 G2 GABc |"^(-natural)" A2 dcBA B2 A2 B2 | %38
w: sem- pre la ve- ri- tà ge _ _ _|_ ne- ra sde- * *|gno, se- pre le ve- ri-|tà, sem- pre la ve- ri-|à ge- * * * * ne- ra|
w: chia, piu val quand' è piu ve- * * *|chia'o- gni pit- tu- * *|ra, piu val quand'è piu ve-|chia, piu val quand' è piu|ve- chia _ 'o _ _ gni pit-|
w: cha,, du- bi- tan- do ri- ch'es- * * *|ser ru- ba- * * *|ta, du- bi- tan- * *|do, du- bi- tan- do che|ri- cha'es- * * * * ser ru-|
 B2 A4 G2 GFED | E2 cBAG A2 fedc | d2 B2 A2 A2 G4 | F12 :| %42
w: sde- * gno ge- * * *||* ne- ra sde- *|gno/|
w: tu- * ra, o- * * *||* gni pit- tu- *|ra.|
w: ba- * ta, es- * * *||* ser ru- ba- *|ta.|
V:2
"^BC" F,4 E,2 F,6 | B,,4 C,2 D,4 B,,2 | C,6 F,,4 A,,2 | B,,6 C,6 |[M:3/4] F,,6 |[M:4/4] F,4 B,,4 | %6
"^5 6""^7""^#" C,4 D,2 G,,2 | C,2 D,2 G,,2 A,,B,, | C,3 B,, A,,4 |"^5 6""^7" B,,4 C,2 F,,2 | %10
"^4 3""^6" C,3 B,, A,,2 B,,2 | C,8 | F,,4 F,2 E,D, :: E,4 F,3 G, | A,4 B,_E, F,2 | %15
 B,,2 B,A, G,2 C2 |"^-natural" F,2 E,2 D,2 G,2 | C,3 B,, A,,G,, D,2 | G,3 F, _E,2 F,2 | %19
 B,,3 A,, G,,2 A,,2 | D,8 | D,3 E, ^F,4 |"^#" G,4 E,4 | F,4 B,,4 | C,8 | F,,8 |[M:6/4] ^F,6 G,6 | %27
 A,6 B,2 ^F,4 | G,2 C,4 D,6 | G,,2 G,2 F,2 E,6 | F,2 ^C,4 D,4 E,2 | F,2 G,4 C,4 D,2 | E,6 F,4 E,2 | %33
 D,2 ^F,4 G,4 F,2 | _E,4 D,2 E,2 F,4 | B,,6 =B,,6 | C,4 D,2 E,6 | ^F,6 G,2 C,4 | D,6 G,,2 =B,,4 | %39
 C,2 E,4 F,2 A,4 | B,4 B,,2 C,6 | F,,12 :| %42

